X:55
T: Around Killavil
S: "First Collection of Traditional Irish Music" (M.Mulvihill)
Z: B.Black
L: 1/8
M: 6/8
R: jig
K: Edor
A|BEF GFE|BAB edB|AFF dFF|ABc dBA|
BEF GFE|BAB edB|AFA dAF|EFE E2 :|
A|Bef gfe|f/g/af edB|AFF dFF|ABc dBA|
Bef gfe|f/g/af edB|AFA dAF|EFE E2 :|
